!!!ONR: No. 44
!! From Harold Courlander, "Haiti Singing"
!! Chapel Hill: University of North Carolina Press, 1939
!! Copyright University of North Carolina Press
!!!ENC: D. Huron
**kern
*clefG2
*k[]
*M2/4
=1-
4r
8e
8e
=
8a
8a
[4a
=
8a]
8b
8ee
=
4dd
8g
8b
=
8a
8g
8e
[8e
=
8e]
8e
8g
8b
=
8a
4b
8a
=
8b
8b
8e
8g
=
4a
[4a
=
8a]
8e
8g
8b
=
8a
4b
8a
=
8b
8a
8g
8e
=
4g
[4g
=
8g]
8e
8g
8a
=
8a
4.a
=
(8a
8b)
8ee
8ee
=
4dd
8g
8b
=
8a
8g
8e
[8e
=
4e]
4r
==
*-
